X:1
T: Andrew and his Cuttie Gun
C:
R:Strathspey
Q:128
K:Bb
M:4/4
L:1/16
|:d4 cBAG c2F2 A2f2|d4 cBAG cBAB G4|d4 cBAG c2F2 A2f2|d4 cBAG cBAB G4|
A2F2 f3g f2d2 f=edc|d2G2 gfga a2gf d4|c2F2 f3g1/2a1/2 f3d c2BA|B3c A2f2 A2g2 G4|
dedc B2AG c2F2 A2f2|dedc cBAG A2D2 G4|dedc B2AG c2F2 A2f2|dedc cBAG A2D2 G4|
A2F2 c2C2 f=efg fedc|d2G2 gfga bagf d4|c2F2 f3g1/2a1/2 f3d dcBA|B3c A2a2 A2g2 G4:|
